X: 2024
M: C
L: 1/8
K: A
|:\
vA3uc BABc | AFEF B/B/B B2 |\
(e/f/g) (ac) BABc |
(e/f/g) (ae) f/f/f f2 |\
[1 (e/f/g) (ac) BABc | AFEF A/A/A A2 :|\
[2 efec BABc | AFEF A/A/A A2 |]


